X:2089
T:French Waltz,A. CJF.197
O:england
M:3/8
L:1/32
Q:90
S: C.J.Fox MS, 1829/33, Beverley,E.Yorks.
R:Waltz
A:East Yorkshire
B:Kidson Coll.Mitchell Lib.M1805
N:"C J Fox" is written in the stave at the end of the tune. - PJH.
K:F
(cf3a)|c'6 (bg3a)|f4z3cf3a|(g3f)(e3f)(b3a)|a3gz3cf3a|a6 (bg3a)|f4z3cf3a
|
g3fe3dc3=B|c4z3:||
ce3g|b3az3cf3a|(c'3b)z3ce3g|(b3a)z3cf3a|c'3bz3ce3g|b3az3cf3a|b3ag3fe3d|
c3=Bc3de3c|f4"Fine"z3:||
"Minore"Ad3f|a4a4a4|.b4(b4a4)|^g8a4|e4z3A=B3^c|d4d4d4|_e6bg3_e|d4d3f e3
